X:42
T:Clare's Dragoons
R: polka 32 march
M:4/4
L:1/8
K:D
Q:1/4=140
|F2 A2 A2 Bc| d3/2c/de d2 AG | F2 A2 A2 ef | g3/2f/ed B2 AG |
|F2 A2 A2 Bc| d3/2c/de f3 g | a2 d2 B2 g2 |1 f2 e2 dcBA :|2 f2 e2 d3 e|
|f2a2e2f2| d3 ef3 d|f2a2e2f2| gfed B3 g|
|f2a2e2f2|d3 ef3 g|a2d2B2g2|f3 ed2||

